assets/icons/projects/bed.svg

<svg width="24" height="18" viewBox="0 0 24 18" fill="none" xmlns="http://www.w3.org/2000/svg">
<path d="M21.3334 6.66665V3.16665C21.3334 1.88331 20.2834 0.833313 19 0.833313H5.00004C3.71671 0.833313 2.66671 1.88331 2.66671 3.16665V6.66665C1.38337 6.66665 0.333374 7.71665 0.333374 8.99998V14.8333H1.88504L2.66671 17.1666H3.83337L4.61504 14.8333H19.3967L20.1667 17.1666H21.3334L22.115 14.8333H23.6667V8.99998C23.6667 7.71665 22.6167 6.66665 21.3334 6.66665ZM10.8334 6.66665H5.00004V3.16665H10.8334V6.66665ZM19 6.66665H13.1667V3.16665H19V6.66665Z" fill="#535558"/>
</svg>

<svg xmlns="http://www.w3.org/2000/svg" width="24" height="18" fill="none"><path fill="#535558" d="M21.333 6.667v-3.5A2.34 2.34 0 0 0 19 .833H5a2.34 2.34 0 0 0-2.333 2.334v3.5A2.34 2.34 0 0 0 .333 9v5.833h1.552l.782 2.334h1.166l.782-2.334h14.782l.77 2.334h1.166l.782-2.334h1.552V9a2.34 2.34 0 0 0-2.334-2.333Zm-10.5 0H5v-3.5h5.833v3.5Zm8.167 0h-5.833v-3.5H19v3.5Z"/></svg>
